svg/edit.svg

<svg xmlns="http://www.w3.org/2000/svg" viewBox="0 0 63 63" width="20">
    <path fill="#08f" d="M0 63l5-21 29-29 3 3L9 44 6 55l2 2 11-3 28-28 3 3-29 29m19-39L13 46h4v4l27-27m-7-13l3-3 16 16-3 3M43 4l4-4h5l11 11v5l-4 4"/>
</svg>

<svg xmlns='http://www.w3.org/2000/svg' viewBox='0 0 63 63' width='20'><path fill='#08f' d='M0,63 5,42 34,13 37,16 9,44 6,55 8,57 19,54 47,26 50,29 21,58M40,19 13,46 17,46 17,50 44,23M37,10 40,7 56,23 53,26M43,4 47,0 52,0 63,11 63,16 59,20'/></svg>
